epam-assets/icon-sources/18/media-fullscreen.svg

<svg xmlns="http://www.w3.org/2000/svg" width="18" height="18" fill="none" viewBox="0 0 18 18">
  <path fill="#6C6F80" fill-rule="evenodd" d="M3.75 3.75H7.5v1.5H5.25V7.5h-1.5V3.75Zm6.75 0h3.75V7.5h-1.5V5.25H10.5v-1.5Zm2.25 6.75h1.5v3.75H10.5v-1.5h2.25V10.5ZM7.5 12.75v1.5H3.75V10.5h1.5v2.25H7.5Z" clip-rule="evenodd"/>
</svg>

<svg width="18" height="18" viewBox="0 0 18 18" fill="none" xmlns="http://www.w3.org/2000/svg">
<g id="18/media-fullscreen">
<path id="icon" fill-rule="evenodd" clip-rule="evenodd" d="M3.75 3.75H7.5V5.25H5.25V7.5H3.75V3.75ZM10.5 3.75H14.25V7.5H12.75V5.25H10.5V3.75ZM12.75 10.5H14.25V14.25H10.5V12.75H12.75V10.5ZM7.5 12.75V14.25H3.75V10.5H5.25V12.75H7.5Z" fill="#6C6F80"/>
</g>
</svg>
